X:1
T:Schneeflöckchen, Weißröckchen
T:Schneeflöckchen, Weißröckchen
%%score { 1 | 2 }
L:1/8
M:3/4
K:C
V:1 treble nm="Piano" snm="Pno."
V:2 bass 
V:1
 !2!EF | G2 G2 A2 | D2 D2 DE | F2 F2 G2 | E4 EF | G2 G2 c2 | B2 A2 GF | E2 F2 D2 | C6 |] %9
w: Schnee- *|flöck- chen, Weiß-|röck- chen, wann *|kommst du ge-|schneit, du *|wohnst in den|Wol- ken, dein *|Weg ist so-|weit.|
V:2
 z2 | !2!C6 | B,6 | A,4 B,2 | C4 z2 | %5
"_2). Komm, setz dich ans Fenster, \ndu lieblicher Stern;\nmalst Blumen und Blätter, \nwir haben dich gern.\n\n3.) Schneeflöckchen, du deckst uns\ndie Blümelein zu, \ndann schlafen sie sicher\nin himmlischer Ruh'." C6 | %6
 !1!D4 B,2 | %7
"_5). Schneeflöckchen, Weißröckchen\ndu Wintervöglein, \nwillkommen, willkommen, \nbei Groß und bei Klein.""_4.) Schneeflöckchen, Weißröckchen\nkomm zu uns ins Tal, \ndann bau'n wir den Schneemann \nund werfen den Ball." C6 | %8
 C,6 |] %9

